X:1
T:He Sang in the Old Choir Choir
T:He Sang in the Old Choir Choir
T:Dick D. Bruun, 1915
T:Public Domain Courtesy of the Cyber Hymnal™
T:Public Domain Courtesy of the Cyber Hymnal™
T:Public Domain Courtesy of the Cyber Hymnal™
T:Public Domain Courtesy of the Cyber Hymnal™
C:Dick D. Bruun, 1915
Z:Public Domain
Z:Courtesy of the Cyber Hymnal™
%%score ( 1 2 ) ( 3 4 ) ( 5 6 )
L:1/8
Q:1/4=95
M:4/4
K:F
V:1 treble 
V:2 treble 
V:3 treble 
V:4 treble 
V:5 bass 
V:6 bass 
V:1
 [Cc] | [CAc][CAc][^CG^c][CGc] [D^Fd] [=C=c][B,B][A,A] | AGA>G !fermata![CEc]3 c | cc^cc d=cBA | %4
w: ~|~ ~ ~ ~ ~ ~ ~ ~|~ ~ ~ ~ ~ 1.~’Twas|Eas- ter Sun- day morn- ing, To the|
w: ~|~ ~ ~ ~ ~ ~ ~ ~|~ ~ ~ ~ ~ 2.~So|here’s a sim- ple less- on Of the|
 AGAG D3 A | cAGE DFED | C6 CC | CDEF GFEF | cc=BB A3 A | AAGF FE G>G | GD A>G G3 c | %11
w: vil- lage I had gone; My|boy- hood home where lived the ones I|loved; At the|church the preach- er spoke the Word, The|choir sang sweet- ly, too, And|in their midst an old man sang The|old songs good and true; His|
w: good that we can do To|help our fel- low men a- long the|way; Just a|word of cheer to those we meet May|ease an ach- ing heart, A|song may save two souls that o- ther-|wise might drift a- part. Still|
 cc^cc d c2 c | cFGA B2 z2 | cB A>A BB A>A | AD A>G !fermata!G2 ||[M:3/4]"^Refrain" c_c | B4 ^CD | %17
w: voice was sweet and ten- der, I|seem to hear him yet|Sing a- gain an old re- frain I|ne- ver will for- get.|How he|sang in the|
w: in my mem- ory that lin- gers|That singer and his song.|Sweet and low, so long a- go, To|hear his voice I long.|||
 A4 G2 | F4 Ac | E4 Ac | D4 Ac | C4 D2 | E6- | E4 z2 | c2 A3 c | A2 G3 z | c2 G3 A | G2 F3 F | %28
w: old church|choir Old- en|songs, gold- en|songs of a|by- gone|day,||Sweet songs of|glad- ness,|songs, too, of|sad- ness That|
w: |||||||||||
 F2 E2 F2 | A2 G3 A | G6- x4 | G4 c_c | B4 ^CD | A4 G_G | F4 Ac | E4 DE | F2 A3 B | %37
w: carr- ied me|far, far a-|way,|* And I|longed in my|soul for that|heav- en- ly|goal That he|sang of so|
w: |||||||||
[M:4/4] c2 A2 G2 F2 x4 | D8- x4 | D6 C2 | F4 G2 A2- | A2 A2 G2 F2 | D4 F2 D2- | (D4 C2) c2 | %44
w: sweet- ly in those|songs:|* “Lead|Kind- ly Light|* a- mid th’en-|circ- ling gloom”|* * And|
w: |||||||
 c3 d c2 A2 | [Ff]2 [Dd]2 !fermata![Cc]3 z |[M:3/4] c2 c2 c2 | ^c4 c2 | e4 dB | G4 AB | c4 Ac | %51
w: “Rock of Ag- es|cleft for me.”|Those were the|songs, the|old gold- en|songs That he|sang in the|
w: |||||||
 A4 G2 | F6- | !fermata!F4 |] %54
w: old church|choir.||
w: |||
V:2
 x | x8 | [=B,F]4 x4 | x8 | x8 | x8 | x8 | x8 | x8 | x8 | x8 | x8 | x8 | x8 | x6 ||[M:3/4] x2 | %16
 x6 | x6 | x6 | x6 | x6 | x6 | x6 | x6 | x6 | x6 | x6 | x6 | x6 | x6 | x10 | x6 | x6 | x6 | x6 | %35
 x6 | x6 |[M:4/4] x12 | x12 | x8 | x8 | x8 | x8 | x8 | x8 | x8 |[M:3/4] x6 | x6 | x6 | x6 | x6 | %51
 x6 | x6 | x4 |] %54
V:3
 z | z8 | z8 | [Ac][Ac][G^c][Gc] [^Fd]=c[DB]A | AGAG [_B,D]3 A | [Ec]AGE DFED | [A,C]6 CC | %7
 CDEF GFEF | [CEGc]c[E=B][EB] [CEA]3 A | AAGF FEG>G | GDA>G [_B,CEG]3 c | %11
 [Ac][Ac][G^c][Gc] [^Fd] c2 [_EFAc] | [_EAc][EF][EG][EA] [DFB]4 | BBA>A BBA>A | %14
 [=B,FA]D[B,FA]>G !fermata![_B,EG]2 ||[M:3/4] c_c | z2 [DG]2 ^CD | z2 [B,CE]2 G2 | z2 [A,C]2 x2 | %19
 z2 [A,C]2 x2 | z2 [A,C]2 x2 | z2 [F,A,]2 D2 | z2 [B,C]2 [B,C]2 | z2 [B,C]2 [B,C]2 | c2 A3 c | %25
 [CFA]2 [B,EG]3 z | c2 G3 A | G2 F3 F | F2 E2 F2 | A2 G3 A | (z2 [B,E]2 [B,D]2 x4 | [B,CG]4) c_c | %32
 z2 [DG]2 ^CD | z2 [B,CE]2 G_G | z2 [A,C]2 x2 | z2 [A,C]2 DE | F2 A3 B |[M:4/4] c2 A2 G2 F2 x4 | %38
 D8- [F,C]4 | [G,B,D]6 C2 | [A,CF]4 G2 [CFA]2- | [CFA]2 A2 G2 F2 | [F,B,D]4 F2 [F,B,D]2- | %43
 [F,B,D]6 c2 | [FAc]3 [FBd] [FAd]2 [CFA]2 | [FAcf]2 [FBd]2 !fermata![FAc]4 |[M:3/4] c2 c2 c2 | %47
 z2 [GA]2 [=C=c]2 | z2 [GB]2 [Dd][B,B] | z2 [B,D]2 AB | z2 [CFA]2 x2 | z2 [B,CE]2 [G,G]2 | %52
 z2 [A,C]2 [G,_D]2 | !fermata![A,CF]4 |] %54
V:4
 x | x8 | x8 | x8 | [=B,F]4 x4 | x4 B,2 _A,2 | x8 | A,4 A,2 _A,2 | x8 | =B,4 B,2 [CE]2 | %10
 =B,2 [B,F]2 x4 | x8 | x8 | [DG]2 [CE]2 [DG]2 [CE]2 | x6 ||[M:3/4] x2 | B4 x2 | A4 x2 | F4 Ac | %19
 (E4 A)c | (D4 A)c | C4 x2 | E6- | E6 | E6 | x6 | E4 x2 | [A,D]6 | [G,=B,]6 | [=B,F]6 | G6- x4 | %31
 x6 | B4 x2 | A4 x2 | (F4 A)c | E4 x2 | [A,_E]4 x2 |[M:4/4] _E12 | [F,B,]4 x8 | x8 | x8 | x2 _E6 | %42
 x8 | x8 | x8 | x8 |[M:3/4] [CFA]6 | [^C^c]4 x2 | [Ee]4 x2 | [G,G]4 x2 | ([Cc]4 A)c | [A,A]4 x2 | %52
 F6- | x4 |] %54
V:5
 z | [C,A,]2 [A,,G,]2 [A,,^F,]2 [D,,D,]2 | [G,,D,]4 (!fermata!G,2 ^G,) z | %3
 [C,A,]2 [A,,G,]2 [A,,^F,]2 [D,,D,]2 | [G,,B,,]4 (G,,F,E,)D, | [C,B,]4 [C,E,]4 | %6
 (C,>C,D,F, [F,,A,]2) z2 | [F,,C,]4 A,,2 _A,,2 | [G,,E,]4 [G,,E,]3 z | [G,,F,]4 [F,G,]2 [E,G,]2 | %10
 G,2 F,2 E,2 z2 | [C,A,]2 [A,,G,]2 [D,^F,A,D]3 z | [F,A,]A,B,C [B,,F,]4 | %13
 [B,,D,B,]2 [A,,E,A,]2 [B,,D,B,]2 [A,,E,A,]2 | [G,,D,]4 !fermata![C,,C,]2 ||[M:3/4] z2 | %16
 [G,,D,]4 z2 | [C,,C,]4 z2 | [F,,C,]4 z2 | [C,,C,]4 z2 | [F,,C,]4 z2 | A,,4 _A,,2 | G,,6 | %23
 [C,,C,]6 | [C,E,B,]4 z2 | [C,,C,]6 | [E,,E,]4 z2 | [D,,F,]6 | G,,6 | [G,,D,]6 | (z2 x8 | %31
 [A,,C,]4) z2 | [G,,D,]4 z2 | [C,,C,]4 z2 | [F,,C,]4 z2 | [C,,C,]4 z2 | [F,,C,]4 z2 | %37
[M:4/4] z2 C2 B,2 A,2 x4 | B,,4 A,,4 x4 | G,,6 z2 | A,,6 [F,,C,]2- | [F,,C,]2 [F,,F,]2 B,2 A,2 | %42
 B,,6 B,,2- | B,,4 A,,4 | [C,A,]3 [B,,B,] [C,A,]2 [F,,F,]2 | [F,,F,]2 [B,,B,]2 !fermata![C,A,]4 | %46
[M:3/4] [C,A,]6 | [A,,G,]4 z2 | [B,,F,]6 | [G,,D,]4 z2 | [C,,C,]4 z2 | [C,,C,]4 z2 | %52
 ([F,,C,]4 [_D,,_D,]2 | !fermata![F,,C,]4) |] %54
V:6
 x | x8 | x4 C,3 x | x8 | x4 G,,3 x | x8 | F,,4 x4 | x8 | x8 | x8 | G,,6 x2 | x8 | F,,4 x4 | x8 | %14
 x6 ||[M:3/4] x2 | x6 | x6 | x6 | x6 | x6 | x6 | x6 | x6 | x6 | x6 | x6 | x6 | x6 | x6 | %30
 C,6 G,2 F,2 | x6 | x6 | x6 | x6 | x6 | x6 |[M:4/4] F,,8 x4 | x12 | x8 | x8 | x8 | x8 | x8 | x8 | %45
 x8 |[M:3/4] x6 | x6 | x6 | x6 | x6 | x6 | x6 | x4 |] %54

